X:1
T:Takt! Takt! pas paa takten
T:Takt! Takt! pas paa takten
T:Bjørnson
T:Karl Svensen
C:Karl Svensen
%%score [ 1 2 3 4 ]
L:1/8
Q:1/4=114
M:4/4
K:C
V:1 treble nm="Soprano"
V:2 treble nm="Alto"
V:3 treble-8 nm="Tenor"
V:4 bass nm="Bass"
V:1
"^Moderato" G2 z2 A2 z2 | G2 A B c2 A2 | G2 E2 F2 A2 | G2 E2 D2 C2 | e4 c4 | d3 e d2 c2 | %6
w: 1.Takt! takt!|takt! pas paa tak- ten!|Den er mer end|hal- ve mag- ten.|Den gjør|en af man- ge,|
w: 2.Takt! takt!|takt! pas paa tak- ten!|Den er mer end|hal- ve mag- ten.|Faar vi|takt i no- gen|
w: 3.Takt! takt!|takt! pas paa tak- ten!|Den er mer end|he- le mag- ten.|Kom vi|al- le først i|
 B A G A B2 A2 | G2 F2 E2 G2 | e4 c4 | d3 e d2 c2 | B A G A B2 A2 | G2 F2 E2 G2 | c2 G2 e2 c2 | %13
w: man- ge, den gjør mo- dig|smaa og ban- ge,|den gjør|let det læng- ste|lan- ge, den gjør maa- let|ty- ve gan- ge|til saa mun- tert|
w: hun- dre, end- da in- gen|det vil un- dre;|faar vi|takt i no- gen|tu- sen, en og an- den|laa- ner ø- re;|faar vi takt i|
w: slik en takt fra Var- dø|og til Vi- ken,|Vin- ger|op til Ber- gens-|trak- ten, \-kom vi al- le|op i tak- ten,|da blev ret paa|
 B2 G2 f2 d2 | c2 G2 e2 c2 | B2 G2 f2 d2 | g2 e2 c2 A2 | G4 z2 z e | d8 | c4 z4 |] %20
w: og saa sik- kert,|som vi had- de|det i kik- kert,|som vi had- de|det i|kik-|kert.|
w: hun- dre tu- sen|jo, den bru- sen|vil de hø- re,|jo, den bru- sen|vil de|hø-|re.|
w: et og an- det|som er rangt end-|nu i lan- det,|som er rangt end-|nu i|lan-|det.|
V:2
 E2 z2 F2 z2 | E2 F D E2 F2 | E2 C2 D2 F2 | E2 C2 B,2 C2 | E4 E4 | D3 D D2 D2 | D C B, C D2 B,2 | %7
w: 1.Takt! takt!|takt! pas paa tak- ten!|Den er mer end|hal- ve mag- ten.|Den gjør|en af man- ge,|man- ge, den gjør mo- dig|
w: 2.Takt! takt!|takt! pas paa tak- ten!|Den er mer end|hal- ve mag- ten.|Faar vi|takt i no- gen|hun- dre, end- da in- gen|
w: 3.Takt! takt!|takt! pas paa tak- ten!|Den er mer end|he- le mag- ten.|Kom vi|al- le først i|slik en takt fra Var- dø|
 C2 C2 C2 D2 | E4 E4 | D3 D D2 D2 | D C B, C D2 B,2 | C2 C2 C2 D2 | C2 D2 E2 G2 | G2 G2 G2 F2 | %14
w: smaa og ban- ge,|den gjør|let det læng- ste|lan- ge, den gjør maa- let|ty- ve gan- ge|til saa mun- tert|og saa sik- kert,|
w: det vil un- dre;|faar vi|takt i no- gen|tu- sen, en og an- den|laa- ner ø- re;|faar vi takt i|hun- dre tu- sen|
w: og til Vi- ken,|Vin- ger|op til Ber- gens-|trak- ten, \-kom vi al- le|op i tak- ten,|da blev ret paa|et og an- det|
 E2 E2 E2 E2 | G2 G2 F2 G2 | G2 G2 G2 F2 | E4 z2 z G | F8 | E4 z4 |] %20
w: som vi had- de|det i kik- kert,|som vi had- de|det i|kik-|kert.|
w: jo, den bru- sen|vil de hø- re,|jo, den bru- sen|vil de|hø-|re.|
w: som er rangt end-|nu i lan- det,|som er rangt end-|nu i|lan-|det.|
V:3
 c2 z2 c2 z2 | c2 c2 c2 c2 | c2 c2 c2 c2 | c2 G2 F2 E2 | c2 B2 A2 A2 | A2 ^F2 G2 A2 | G2 G2 G2 G2 | %7
w: 1.Takt! takt!|pas paa tak- ten!|Den er mer end|hal- ve mag- ten.|Den gjør en af|man- ge, man- ge,|den gjør mo- dig|
w: 2.Takt! takt!|pas paa tak- ten!|Den er mer end|hal- ve mag- ten.|Faar vi takt i|no- gen hun- dre,|end- da in- gen|
w: 3.Takt! takt!|pas paa tak- ten!|Den er mer end|he- le mag- ten.|Kom vi al- le|først i slik en|takt fra Var- dø|
 G2 G2 G2 G2 | c2 B2 A2 A2 | A2 ^F2 G2 A2 | G2 G2 G2 G2 | G2 G2 G2 G2 | A2 G2 c2 e2 | d2 G2 A2 B2 | %14
w: smaa og ban- ge,|den gjør let det|læng- ste lan- ge,|den gjør maa- let|ty- ve gan- ge|til saa mun- tert|og saa sik- kert,|
w: det vil un- dre;|faar vi takt i|no- gen tu- sen,|en og an- den|laa- ner ø- re;|faar vi takt i|hun- dre tu- sen|
w: og til Vi- ken,|Vin- ger op til|Ber- gens- trak- ten,|\-kom vi al- le|op i tak- ten,|da blev ret paa|et og an- det|
 c2 c2 c2 c2 | d2 G2 A2 B2 | c2 c2 c2 c2 | c4 z2 z c | B8 | c4 z4 |] %20
w: som vi had- de|det i kik- kert,|som vi had- de|det i|kik-|kert.|
w: jo, den bru- sen|vil de hø- re,|jo, den bru- sen|vil de|hø-|re.|
w: som er rangt end-|nu i lan- det,|som er rangt end-|nu i|lan-|det.|
V:4
 C,2 z2 C,2 z2 | C,2 C,2 C,2 C,2 | C,2 C,2 C,2 C,2 | C,2 C,2 C,2 C,2 | A,,2 A,,2 A,2 G,2 | %5
w: 1.Takt! takt!|pas paa tak- ten!|Den er mer end|hal- ve mag- ten.|Den gjør en af|
w: 2.Takt! takt!|pas paa tak- ten!|Den er mer end|hal- ve mag- ten.|Faar vi takt i|
w: 3.Takt! takt!|pas paa tak- ten!|Den er mer end|he- le mag- ten.|Kom vi al- le|
 ^F,2 D,2 E,2 F,2 | G,2 G,2 G,2 =F,2 | E,2 D,2 C,2 B,,2 | A,,2 A,,2 A,2 G,2 | ^F,2 D,2 E,2 F,2 | %10
w: man- ge, man- ge,|den gjør mo- dig|smaa og ban- ge,|den gjør let det|læng- ste lan- ge,|
w: no- gen hun- dre,|end- da in- gen|det vil un- dre;|faar vi takt i|no- gen tu- sen,|
w: først i slik en|takt fra Var- dø|og til Vi- ken,|Vin- ger op til|Ber- gens- trak- ten,|
 G,2 G,2 G,2 =F,2 | E,2 D,2 C,2 B,,2 | A,,2 B,,2 C,2 (C,E,) | G,2 G,2 G,2 G,2 | C2 B,2 A,2 G,2 | %15
w: den gjør maa- let|ty- ve gan- ge|til saa mun- tert _|og saa sik- kert,|som vi had- de|
w: en og an- den|laa- ner ø- re;|faar vi takt i _|hun- dre tu- sen|jo, den bru- sen|
w: \-kom vi al- le|op i tak- ten,|da blev ret paa _|et og an- det|som er rangt end-|
 F,2 E,2 D,2 F,2 | E,2 C,2 E,2 F,2 | G,4 z2 z G, | G,,8 | C,4 z4 |] %20
w: det i kik- kert,|som vi had- de|det i|kik-|kert.|
w: vil de hø- re,|jo, den bru- sen|vil de|hø-|re.|
w: nu i lan- det,|som er rangt end-|nu i|lan-|det.|

